X: 340
T:Christmas Day in da Morning
% Nottingham Music Database
S:Trad, arr Phil Rowe
M:6/8
K:D
"D"f2d f3|"A"e2d c2A|"G"B2G d2c|BG2 G3|"A"e2f g2f|e2d c2B|
"A"ABA ABc|"D"d3 d2e|"D"fa2 a3|"A"e2d c2A|"G"B2G d2c|
BG2 G3|"A"e2f g2f|e2d c2B|"A"ABA ABc|"D"d3 d3
|:"Em"e3 (4edef|g3 B3|"D"A2A A2A|B2=c d2B|"Em"e3 (4edef|g3 B3|"D"A2e dB2|\
"Am"A3 A3:|<end>
<start>
